X:500
T: Pat Marsh's Keyhole
C: P.J. King
M: 4/4
R: reel
S: "Raise the Rafters" (P.J. King, K.Crawford, M.O Malley)
Z: B.Black
K: D
A|dcBd AF (3FEF|DFBF AF F2|dcBd ABde|f2 df edBA|
dcBd AF (3FEF|DFBF ABde|f2 df edef|afea fd d :|
B|Ad (3dcd edBc|Adbf afeg|fd (3dcd efdB|AF F2 GFED|
Ad (3dcd edBc|Adbf afeg|fAdf efdb|afea fd d :|
